X:1
T:Johnny and Old Mr. Henly
M:4/4
L:1/8
K:F
 z d2 A c3 c| c2 d2 A2 G2| z F2 D F3 G| A2 A2 A2 G2| z dd Ac c2 c|\
 c2 d2 A4| AA GF D2 FG| z A2 F D4|

